X:1
T:BWV 988
T:Goldberg Variations: Variation XX
T:J. S. Bach
%%score { 1 | 2 }
L:1/8
M:3/4
K:G
V:1 treble nm="Harp"
V:2 treble 
V:1
 z/ B/ z/ G/ z/ D/ z/ B,/[K:bass] z/ G,/F,/E,/ | F,A,[K:treble] DF Ad | %2
 z/ G/ z/ E/ z/ ^C/ z/ A,/[K:bass] z/ G,/F,/E,/ | D,F, A,D[K:treble] FA | %4
 z/ G/ z/ D/ z/ B,/ z/ G,/[K:bass] z/ =F,/E,/D,/ | C,E, G,C EG | %6
 z/ F/ z/ D/ z/ A,/ z/ F,/ z/ D,/C,/D,/ | G,,B,, D,G, F,C | %8
 (3B,/A,/B,/(3C/B,/C/[K:treble] (3D/C/D/(3E/D/E/ (3F/E/F/(3G/F/G/ | %9
 (3A/G/A/(3B/A/B/ (3^c/B/c/(3d/c/d/ (3e/d/e/(3f/e/f/ | g z[K:bass] E,/4D,/4E,3/2 z[K:treble] B | %11
 g z[K:bass] ^C,/4B,,/4C,3/2 z[K:treble] g | (3f/a/d/(3e/g/^c/ (3d/f/B/(3=c/e/A/ (3B/d/F/(3A/c/F/ | %13
 G[K:bass]G, F,A, D,D |[K:treble] (3^C/A,/B,/(3C/D/E/ F-(3F/E/D/ Bd/4^c/4B/4c/4 | %15
 (3d/A/F/[K:bass](3D/A,/F,/ D, z z2 |[K:treble] z/ B/ z/ G/ z/ D/ z/ B,/ z/[K:bass] G,/F,/E,/ | %17
 F,A,[K:treble] DF Ad | z/ G/ z/ E/ z/ ^C/ z/ A,/ z/[K:bass] G,/F,/E,/ | D,F, A,[K:treble]D FA | %20
 z/ G/ z/ D/ z/ B,/ z/ G,/ z/[K:bass] =F,/E,/D,/ | C,E, G,C[K:treble] EG | %22
 z/ F/ z/ D/ z/[K:bass] A,/ z/ F,/ z/ D,/C,/D,/ | G,,B,, D,G, F,C | %24
 (3B,/A,/B,/(3C/B,/C/[K:treble] (3D/C/D/(3E/D/E/ (3F/E/F/(3G/F/G/ | %25
 (3A/G/A/(3B/A/B/ (3^c/B/c/(3d/c/d/ (3e/d/e/(3f/e/f/ | g z[K:bass] E,/4D,/4E,3/2 z[K:treble] B | %27
 g z[K:bass] ^C,/4B,,/4C,3/2 z[K:treble] g | (3f/a/d/(3e/g/^c/ (3d/f/B/(3=c/e/A/ (3B/d/F/(3A/c/F/ | %29
 G[K:bass]G, F,A, D,D |[K:treble] (3^C/A,/B,/(3C/D/E/ F-(3F/E/D/ Bd/4^c/4B/4c/4 | %31
 (3d/A/F/[K:bass](3D/A,/F,/ D, z z2 |[K:treble] z/ a/ z/ f/ z/ d/ z/ A/ z/ F/ z/ D/ | %33
[K:bass] z/ B,/ z/ G,/ z/ D,/ z/ B,,/ z/ G,,/A,,/B,,/ | C,G, CE A,[K:treble]c- | %35
 (3c/B/^A/(3B/^c/^d/ (3e/d/c/(3d/e/f/ (3g/f/e/(3f/g/a/ | (3b/a/g/(3a/b/c'/ ^dc' b=d- | %37
 (3d/^c/^d/(3e/f/g/ ^Ag f=A |[K:bass] G^D EC ^D,[K:treble]^d | %39
 eE (3z/ G/B/(3e/g/^d/ (3e/B/G/ (3z/ ^G/=f/ | %40
 (3e/c/A/ (3z/ D/B/ (3z/ C/A/ (3z/ B,/G/ (3z/ C/A/ (3z/ F/_e/ | %41
 (3d/B/G/ (3z/ C/A/ (3z/ B,/G/ (3z/ A,/=F/ (3z/ B,/G/ (3z/ E/d/ | c/A/E/C/ CC Cc | c/A/F/D/ DD Dc | %44
 (3B/G/d/(3c/A/e/ dB, G,=f | (3e/g/c/(3d/=f/B/ (3c/e/A/(3B/d/G/ (3A/c/F/(3G/B/E/ | %46
 (3F/D/E/(3F/G/A/ B,-(3B,/G,/G,/ EG/4F/4E/4F/4 | (3G/D/B,/[K:bass](3G,/D,/B,,/ G,, z z2 | %48
 z/ a/ z/ f/ z/ d/ z/ A/ z/ F/ z/ D/ | z/ B,/ z/ G,/ z/ D,/ z/ B,,/ z/ G,,/A,,/B,,/ | %50
 C,G, CE A,c- | (3c/B/^A/(3B/^c/^d/ (3e/d/c/(3d/e/f/ (3g/f/e/(3f/g/a/ | %52
 (3b/a/g/(3a/b/c'/ ^dc' b=d- | (3d/^c/^d/(3e/f/g/ ^Ag f=A | G^D EC ^D,^d | %55
 eE (3z/ G/B/(3e/g/^d/ (3e/B/G/ (3z/ ^G/=f/ | %56
 (3e/c/A/ (3z/ D/B/ (3z/ C/A/ (3z/ B,/G/ (3z/ C/A/ (3z/ F/_e/ | %57
 (3d/B/G/ (3z/ C/A/ (3z/ B,/G/ (3z/ A,/=F/ (3z/ B,/G/ (3z/ E/d/ | c/A/E/C/ CC Cc | c/A/F/D/ DD Dc | %60
 (3B/G/d/(3c/A/e/ dB, G,=f | (3e/g/c/(3d/=f/B/ (3c/e/A/(3B/d/G/ (3A/c/F/(3G/B/E/ | %62
 (3F/D/E/(3F/G/A/ B,-(3B,/G,/G,/ EG/4F/4E/4F/4 | (3G/D/B,/(3G,/D,/B,,/ !fermata!G,, z z2 |] %64
V:2
 G,B, DG B^c | z/ d/ z/ A/ z/ F/ z/ D/ z/[K:bass] A,/G,/F,/ | E,G, A,^C EG | %3
 z/ F/ z/ D/ z/ A,/ z/ F,/ z/ E,/D,/C,/ | B,,D, G,B, D=F | %5
 z/ E/ z/ C/ z/ G,/ z/ E,/ z/ C,/B,,/A,,/ | D,F, A,[K:treble]D FA | %7
 z/ B/ z/ G/ z/ D/ z/ B,/ z/ A,/G,/F,/ | G, z b/4a/4b3/2 z E | F, z a/4g/4a3/2 z D | %10
 (3B/c/B/(3A/B/A/ (3G/A/G/(3F/G/F/ (3E/F/E/(3D/E/D/ | %11
[K:bass] (3^C/D/C/(3B,/C/B,/ (3A,/B,/A,/(3G,/A,/G,/ (3F,/G,/F,/(3E,/F,/E,/ | D,A, FA, D,C | %13
[K:treble] (3B,/G,/D/(3^C/A,/E/ (3D/B,/F/(3E/=C/G/ (3F/D/A/(3G/E/B/ | %14
 A-(3A/B/^c/ (3d/c/B/A- (3A/G/F/(3E/F/G/ | F z (3z/ F/A/(3d/f/a/ d' z | G,B, DG B^c | %17
 z/ d/ z/ A/ z/ F/ z/ D/ z/ A,/G,/F,/ | E,G, A,^C EG | %19
 z/ F/ z/ D/ z/[K:bass] A,/ z/ F,/ z/ E,/D,/C,/ | B,,D, G,B, D=F | %21
 z/ E/ z/ C/ z/ G,/ z/ E,/ z/ C,/B,,/A,,/ | D,F, A,[K:treble]D FA | %23
 z/ B/ z/ G/ z/ D/ z/ B,/ z/[K:bass] A,/G,/F,/ | G, z[K:treble] b/4a/4b3/2 z E | %25
[K:bass] F, z[K:treble] a/4g/4a3/2 z D | (3B/c/B/(3A/B/A/ (3G/A/G/(3F/G/F/ (3E/F/E/(3D/E/D/ | %27
 (3^C/D/C/(3B,/C/B,/ (3A,/B,/A,/(3G,/A,/G,/ (3F,/G,/F,/(3E,/F,/E,/ | D,A, FA, D,C | %29
 (3B,/G,/D/(3^C/A,/E/ (3D/B,/F/(3E/=C/G/ (3F/D/A/(3G/E/B/ | %30
 A-(3A/B/^c/ (3d/c/B/A- (3A/G/F/(3E/F/G/ | F z (3z/ F/A/(3d/f/a/ d' z |[K:bass] D,D,, F,,A,, D,F, | %33
 G,[K:treble]B, DG B/4A/4B3/2- | (3B/E/^D/(3E/F/G/ (3A/G/F/(3G/A/B/ (3c/B/A/(3G/F/E/ | %35
 ^D-(3D/E/F/ (3G/F/E/(3F/G/A/[K:bass] B,A, | %36
 (3G,/F,/E,/-(3E,/^D,/=F,/ (3^F,/E,/F,/(3G,/F,/G,/ (3^G,/F,/G,/(3G,/F,/G,/ | %37
 A,-(3A,/^A,/B,/ (3C/B,/C/(3^C/B,/C/ (3D/C/D/(3^D/C/D/ | %38
[K:treble] (3E/^D/E/(3F/E/F/ (3G/F/G/(3A/G/A/ (3B/A/B/(3c/B/A/ | (3G/F/G/(3A/G/A/ E3[K:bass] D, | %40
 C,E EE EC, | B,,D DD DB,, | A,, (3z/ B,/G/ (3z/ A,/F/ (3z/ G,/E/ (3z/ F,/D/ (3z/ G,/E/ | %43
 D, (3z/[K:treble] A,/F/ (3z/ B,/G/ (3z/ C/A/ (3z/ B,/G/ (3z/ A,/F/ | %44
 G,G- (3G/B/E/(3=F/A/D/ (3E/G/C/(3D/F/B,/ | (3C/G,/E/(3D/B,/=F/ Eg c'e | %46
 d-(3d/e/f/ (3g/f/e/d- (3d/c/B/(3A/B/c/ | B z (3z/ B,/D/(3G/B/d/ g z | D,D,, F,,A,, D,F, | %49
 G,B, DG B/4A/4B3/2- | (3B/E/^D/(3E/F/G/ (3A/G/F/(3G/A/B/ (3c/B/A/(3G/F/E/ | %51
 ^D-(3D/E/F/ (3G/F/E/(3F/G/A/ B,A, | %52
 (3G,/F,/E,/-(3E,/^D,/=F,/ (3^F,/E,/F,/(3G,/F,/G,/ (3^G,/F,/G,/(3G,/F,/G,/ | %53
 A,-(3A,/^A,/B,/ (3C/B,/C/(3^C/B,/C/ (3D/C/D/(3^D/C/D/ | %54
 (3E/^D/E/(3F/E/F/ (3G/F/G/(3A/G/A/ (3B/A/B/(3c/B/A/ | (3G/F/G/(3A/G/A/ E3 D, | C,E EE EC, | %57
 B,,D DD DB,, | A,, (3z/ B,/G/ (3z/ A,/F/ (3z/ G,/E/ (3z/ F,/D/ (3z/ G,/E/ | %59
 D, (3z/ A,/F/ (3z/ B,/G/ (3z/ C/A/ (3z/ B,/G/ (3z/ A,/F/ | %60
 G,G- (3G/B/E/(3=F/A/D/ (3E/G/C/(3D/F/B,/ | (3C/G,/E/(3D/B,/=F/ Eg c'e | %62
 d-(3d/e/f/ (3g/f/e/d- (3d/c/B/(3A/B/c/ | B z (3z/ B,/D/(3G/B/d/ !fermata!g z |] %64

